X:RS-39
T:(Uden titel)
T:(Totakt-pols, nr.RS-39)
S:Rasmus Storm
R:Totakt-pols
B:Totakt-pols
O:Fåborg, Svendborg amt, Danmark
N:Fler låtar från Danmark...
M:2/4
L:1/8
K:F
Q:100
|: "Dm"da ag | f2 e2 | df ed | "A"^ce/c/ A2 | "Dm"FE F^G  | "A"A2 A,2  :: "Dm"ff ff | 
"C"eg/e/ c2 | "Dm"fefd | "A"^ce/c/ A2 | e !+!A e !+!A  | e !+!A e a/g/  | "Dm"fd "A"e^c | "Dm"d2 D2 :|

